src/images/apple/apple.svg

<?xml version="1.0" encoding="UTF-8"?>
<svg fill="none" viewBox="0 0 114 146" xmlns="http://www.w3.org/2000/svg">
<g clip-path="url(#a)">
<path d="m106.45 50.529c-0.758 0.5922-14.045 8.1218-14.045 24.872 0 19.374 16.904 26.226 17.409 26.395-0.084 0.422-2.692 9.39-8.915 18.527-5.5504 8.038-11.354 16.074-20.184 16.074-8.8302 0-11.101-5.16-21.277-5.16-9.9237 0-13.456 5.33-21.53 5.33-8.0737 0-13.708-7.445-20.184-16.582-7.4849-10.745-13.54-27.411-13.54-43.231 0-25.38 16.4-38.832 32.546-38.832 8.5785 0 15.726 5.6685 21.109 5.6685 5.13 0 13.12-6.0068 22.875-6.0068 3.701 8e-4 16.989 0.3399 25.736 12.945zm-30.36-23.688c4.0364-4.8223 6.8962-11.506 6.8962-18.189 0-0.93055-0.0839-1.8611-0.2524-2.6229-6.5599 0.25393-14.381 4.3996-19.091 9.8985-3.7001 4.2301-7.1486 10.913-7.1486 17.682 0 1.0149 0.1686 2.0307 0.2525 2.369 0.4201 0.0843 1.0936 0.1695 1.7662 0.1695 5.8872-8e-4 13.288-3.9769 17.577-9.3071z" fill="#fff"/>
</g>
<defs>
<clipPath id="a">
<rect width="114" height="146" fill="#fff"/>
</clipPath>
</defs>
</svg>

<svg width="114" height="146" viewBox="0 0 114 146" fill="none" xmlns="http://www.w3.org/2000/svg">
<g clip-path="url(#clip0_364_1116)">
<path d="M106.451 50.5292C105.693 51.1214 92.4059 58.651 92.4059 75.4016C92.4059 94.7751 109.31 101.628 109.815 101.797C109.731 102.219 107.123 111.187 100.9 120.324C95.3496 128.362 89.5462 136.398 80.7161 136.398C71.8859 136.398 69.6149 131.238 59.4388 131.238C49.5151 131.238 45.9827 136.568 37.9091 136.568C29.8354 136.568 24.2006 129.123 17.7254 119.986C10.2405 109.241 4.18542 92.5749 4.18542 76.7548C4.18542 51.3745 20.5851 37.9226 36.7316 37.9226C45.3101 37.9226 52.4579 43.5911 57.8403 43.5911C62.9703 43.5911 70.9601 37.5843 80.7152 37.5843C84.4162 37.5851 97.7045 37.9242 106.451 50.5292ZM76.0909 26.8412C80.1273 22.0189 82.9871 15.3356 82.9871 8.65219C82.9871 7.72164 82.9032 6.7911 82.7347 6.0293C76.1748 6.28323 68.3536 10.4289 63.6437 15.9278C59.9436 20.1579 56.4951 26.8412 56.4951 33.6098C56.4951 34.6247 56.6637 35.6405 56.7476 35.9788C57.1677 36.0631 57.8412 36.1483 58.5138 36.1483C64.401 36.1475 71.8013 32.1714 76.0909 26.8412Z" fill="white"/>
</g>
<defs>
<clipPath id="clip0_364_1116">
<rect width="114" height="146" fill="white"/>
</clipPath>
</defs>
</svg>
